X: 62
T: No_157_I_Have_Lost_My_Sweetheart.krn
%%abc-version 2.0
%%abcx-abcm2ps-target-version 5.9.1 (29 Sep 2008)
%%abc-creator hum2abc beta
%%abcx-conversion-date 2020/08/10 18:54:57
%%humdrum-veritas 2848309936
%%humdrum-veritas-data 2086389220
%%linebreak <none>
%%barnumbers 0
L: 1/16
M: 3/4
K: D clef=treble
F2F3D [I:setbarnb 1]| 
F4>F4 D3B, | 
D4>F4 D3F | 
B,6B,D2< B,2G, | 
B,12 | 
FD2B,D8 | 
FD2FB,8[K:clef=bass] | 
DB,2B,G,8 ||  
[M:2/4]B,4G,3F, | 
F,8 ||  
[M:3/4]F,D,2B,,D,8 ||  
[M:2/4]F,4D,3B,, | 
B,,8 |]  


